X:1
T:Qual per me ste'
T:Stefano Landi
T:Source : Arie---Quinto libro---Venetia---B.Magni---1637. Editor : André Vierendeels (09/02/17).
T:Notes : Original clefs : C1, C4( from m13: F4) Figures in BC are notated in original print "Littere per la Chitarra" :  Continuo proposed by the editor Poesia del Sig.Francesco Balducci 
T:Qual per me ste'
T:©
T:©
C:Stefano Landi
Z:©
%%score 1 { ( 2 3 ) | 4 }
L:1/8
Q:1/4=103
M:4/4
K:D
V:1 treble nm="Soprano" snm="S"
V:2 treble nm="MusicXML Part"
V:3 treble 
V:4 bass 
V:1
 z4 d2 c2 | B2 A2 G2 F2 | E2 E2 A2 ^G2 | A2 A2 B3 B | c2 e2 d3 c | c4 B2 B2 | B3 d =c3 A | %7
w: Qual per|me ste' a si-|re- a, si vol-|ge- a per- lo|Cie- lo'il tri- sto|di? Che per|voi bel- tà criu-|
w: Dun- que'il|pet- to'à si mal|pun- to re- sto|pun- to dei vo-|stro'ar- co'em- pia bel-|tà, per- che|poi tra- fit- to'il|
w: Dun- qu'in|fac- ci'à si bel|Nu- me, tan- to|lu- me per mia|mor- te'ac- ce- so|fu, c'a- do-|rai bel- tà'in- fi-|
w: Ahi ve-|le- no'in va- sel'|d'o- ro, che ri-|sto- ro por- t'al|la- bro'e'uc- ci- der|puo, poi c'hai|tu se- ra co-|
 B2 B2 A2 G2 | F2 F2 B3 A | G2 AG F3 E | E2 B4 B2 | A2 G2 =c3 B | B2 A2 G3 F | F2 E2 G2 F2 | %14
w: de- le le sue|ve- le la mia|na- v'al _ ven- to'a-|pri, che per|voi bel- tà cru-|de- le le sue|ve- le la mia|
w: co- re dal do-|lo- re non tro-|vas se mai pie- *|ta, per che|poi tra- fit- to'il|co- re dal do-|lo- re non tro-|
w: ni- ta per- che|vi- ta'il mi- o|cor non hab- bi- a|piu, c'a- do-|rai bel- tà'in- fi-|ni- ta per- che|vi- ta'il mi- o|
w: me'An- gue tan- ta|se- te io mo-|rir vuo, por- t'al la-|bro'e uc- ci-|der puo, por c'hai|tu se- ra co-|me'An- gue tan- ta|
 E2 EB E3 D | !fermata!D8 |] %16
w: va- ve'al _ ven- to'a-|pri.|
w: vas- se mai pie- *|ta.|
w: cor non hab- bi- a|piu.|
w: se- te io mo- rir|vuo.|
V:2
 A6 c2 | B2 A2 B2 A2 | c4 Aced | A4 d2 B2 | c4 e4 | c4 B4 | B4 G2 A2 | B4 A2 B2 | F4 G2 F2 | %9
 G2 A2 F4 | G4 B2 B2 | B2 G2 A4 | d4 B2 c2 | A2 A2 B2 d2 | B4 EFGA | !fermata!F8 |] %16
V:3
 F6 E2 | F2 D4 F2 | E4 E4 | E4 F2 ^G2 | E4 A2 ^G2 | E4 E2 F2 | G4 E2 F2 | D4 D2 G2 | ^D4 D4 | %9
 E2 =C2 E2 ^D2 | B,4 G4 | E2 D2 E2 F2 | G2 A2 G2 E2 | F2 E2 D2 F2 | E4 D2 C2 | D8 |] %16
V:4
"^BC" D6 A,2 | B,2 F,2 G,2 D,2 | A,4 A,2 B,2 | C4 D2 E2 |"^7 6" A,2 C2 B,4 |"^2" A,4 E2 ^D2 | %6
"^-natural3""^6" E2 B,2 =C2 D2 |"^#6" G,4 F,2 E,2 |"^#3""^6 5" B,4 B,4 |"^4 3" =C2 A,2 B,4 | %10
"^-natural3""^-natural3" E,4 E2 D2 | =C2 B,2 A,2 D,2 |"^#3" G,2 F,2 E,2 A,,2 | D,2 C,2 B,,2 A,,2 | %14
"^4 3" ^G,,4 A,,4 | !fermata!D,8 |] %16

